public/logos/DV.svg

<?xml version="1.0" encoding="UTF-8"?>
<svg xmlns="http://www.w3.org/2000/svg" xmlns:xlink="http://www.w3.org/1999/xlink" width="176pt" height="47.31pt" viewBox="0 0 176 47.31" version="1.1">
<defs>
<clipPath id="clip1">
  <path d="M 0 0 L 53 0 L 53 47.308594 L 0 47.308594 Z M 0 0 "/>
</clipPath>
</defs>
<g id="surface1">
<g clip-path="url(#clip1)" clip-rule="nonzero">
<path style=" stroke:none;fill-rule:nonzero;fill:rgb(22.732544%,49.69635%,68.011475%);fill-opacity:1;" d="M 51.046875 44.0625 C 50.546875 44.9375 49.257812 45.421875 47.414062 45.421875 C 44.160156 45.421875 39.648438 43.953125 35.347656 41.496094 C 31.910156 39.527344 29.238281 37.3125 27.460938 35.261719 C 27.734375 34.890625 27.980469 34.523438 28.207031 34.15625 L 34.121094 34.15625 L 31.117188 29.011719 C 31.25 28.753906 31.367188 28.472656 31.488281 28.195312 C 34.328125 28.726562 37.652344 29.996094 40.871094 31.835938 C 44.421875 33.867188 47.433594 36.328125 49.351562 38.761719 C 51.089844 40.972656 51.707031 42.90625 51.046875 44.0625 Z M 26.34375 45.734375 C 23.199219 45.734375 20.265625 44.8125 17.796875 43.226562 C 17.96875 43.128906 18.144531 43.042969 18.316406 42.945312 C 21.71875 41 24.511719 38.726562 26.464844 36.492188 C 28.417969 38.695312 31.1875 40.933594 34.566406 42.863281 C 34.722656 42.953125 34.886719 43.035156 35.042969 43.121094 C 32.542969 44.769531 29.554688 45.734375 26.34375 45.734375 Z M 5.464844 45.574219 C 3.625 45.574219 2.335938 45.015625 1.835938 44.140625 C 1.171875 42.980469 1.789062 40.972656 3.53125 38.761719 C 5.445312 36.328125 8.457031 33.867188 12.011719 31.835938 C 15.226562 30 18.554688 28.722656 21.394531 28.191406 C 21.542969 28.542969 21.703125 28.875 21.867188 29.1875 L 19.109375 34.15625 L 24.703125 34.15625 C 24.929688 34.523438 25.183594 34.894531 25.464844 35.269531 C 23.683594 37.34375 21.003906 39.585938 17.53125 41.570312 C 13.234375 44.03125 8.722656 45.574219 5.46875 45.574219 Z M 10.46875 29.859375 C 10.46875 23.628906 14.078125 18.226562 19.308594 15.628906 C 19.3125 15.628906 19.316406 15.617188 19.320312 15.613281 C 19.3125 15.902344 19.300781 16.1875 19.300781 16.480469 C 19.300781 20.390625 19.871094 23.921875 20.824219 26.714844 C 17.867188 27.316406 14.480469 28.628906 11.226562 30.488281 C 10.984375 30.628906 10.746094 30.773438 10.507812 30.917969 C 10.484375 30.570312 10.46875 30.214844 10.46875 29.859375 Z M 21.789062 32.640625 L 26.453125 24.347656 L 31.285156 32.628906 Z M 26.441406 1.578125 C 29.070312 1.578125 32.003906 7.699219 32.003906 16.480469 C 32.003906 20.464844 31.394531 23.882812 30.488281 26.449219 C 30.175781 26.410156 29.878906 26.394531 29.582031 26.378906 L 26.429688 20.972656 L 23.425781 26.378906 C 23.089844 26.394531 22.746094 26.417969 22.386719 26.460938 C 21.480469 23.898438 20.878906 20.464844 20.878906 16.480469 C 20.878906 7.699219 23.808594 1.578125 26.441406 1.578125 Z M 33.574219 15.726562 C 38.703125 18.363281 42.21875 23.707031 42.21875 29.859375 C 42.21875 30.171875 42.210938 30.480469 42.191406 30.789062 C 42.011719 30.683594 41.835938 30.574219 41.652344 30.46875 C 38.402344 28.609375 35.019531 27.300781 32.0625 26.703125 C 33.011719 23.910156 33.582031 20.382812 33.582031 16.480469 C 33.582031 16.226562 33.570312 15.976562 33.5625 15.722656 C 33.566406 15.726562 33.570312 15.726562 33.574219 15.726562 Z M 50.589844 37.785156 C 48.933594 35.683594 46.523438 33.578125 43.683594 31.71875 C 43.75 31.109375 43.796875 30.488281 43.796875 29.859375 C 43.796875 22.785156 39.5625 16.679688 33.5 13.941406 C 33.496094 13.941406 33.492188 13.9375 33.488281 13.9375 C 32.972656 5.949219 30.066406 0.00390625 26.441406 0.00390625 C 22.828125 0.00390625 19.925781 5.910156 19.398438 13.859375 C 19.394531 13.859375 19.390625 13.851562 19.386719 13.855469 C 13.21875 16.546875 8.894531 22.707031 8.894531 29.859375 C 8.894531 30.535156 8.945312 31.199219 9.023438 31.855469 C 6.257812 33.691406 3.914062 35.765625 2.292969 37.824219 C 0.101562 40.605469 -0.546875 43.152344 0.464844 44.921875 C 1.027344 45.90625 2.351562 47.152344 5.464844 47.152344 L 5.46875 47.152344 C 8.445312 47.152344 12.347656 45.980469 16.222656 44.054688 C 19.082031 46.097656 22.570312 47.308594 26.34375 47.308594 C 30.183594 47.308594 33.726562 46.050781 36.609375 43.945312 C 40.5 45.871094 44.421875 46.996094 47.414062 46.996094 C 50.53125 46.996094 51.855469 45.828125 52.414062 44.84375 C 53.425781 43.074219 52.78125 40.566406 50.589844 37.785156 "/>
</g>
<path style=" stroke:none;fill-rule:nonzero;fill:rgb(22.732544%,49.69635%,68.011475%);fill-opacity:1;" d="M 59.03125 23.273438 L 60.394531 23.273438 C 61.019531 24.140625 61.84375 24.902344 62.867188 25.558594 C 63.890625 26.214844 65.019531 26.71875 66.257812 27.066406 C 67.492188 27.414062 68.78125 27.585938 70.117188 27.585938 C 71.082031 27.585938 71.9375 27.484375 72.683594 27.28125 C 73.429688 27.078125 74.007812 26.800781 74.421875 26.449219 C 74.832031 26.097656 75.039062 25.699219 75.039062 25.253906 C 75.039062 24.542969 74.527344 23.90625 73.503906 23.34375 C 73.050781 23.078125 72.394531 22.804688 71.53125 22.527344 C 70.671875 22.253906 69.355469 21.84375 67.578125 21.304688 C 65.800781 20.765625 64.484375 20.347656 63.625 20.050781 C 62.765625 19.753906 62 19.433594 61.332031 19.089844 C 59.855469 18.277344 59.117188 17.332031 59.117188 16.253906 C 59.117188 15.683594 59.34375 15.144531 59.796875 14.640625 C 60.253906 14.136719 60.878906 13.703125 61.675781 13.339844 C 62.46875 12.976562 63.414062 12.691406 64.511719 12.488281 C 65.605469 12.285156 66.785156 12.183594 68.046875 12.183594 C 68.972656 12.183594 69.792969 12.21875 70.511719 12.289062 C 71.226562 12.359375 71.984375 12.460938 72.78125 12.59375 C 73.574219 12.726562 74.222656 12.828125 74.71875 12.894531 C 75.21875 12.960938 75.609375 12.992188 75.890625 12.992188 C 76.671875 12.992188 77.207031 12.722656 77.492188 12.183594 L 78.917969 12.183594 L 78.917969 17.367188 L 77.578125 17.367188 C 76.980469 16.554688 76.207031 15.84375 75.261719 15.234375 C 74.320312 14.625 73.273438 14.152344 72.128906 13.820312 C 70.984375 13.488281 69.808594 13.324219 68.601562 13.324219 C 67.308594 13.324219 66.277344 13.496094 65.5 13.84375 C 64.726562 14.191406 64.339844 14.65625 64.339844 15.234375 C 64.339844 15.765625 64.730469 16.246094 65.511719 16.675781 C 65.953125 16.902344 66.8125 17.203125 68.089844 17.582031 C 69.371094 17.960938 70.59375 18.316406 71.757812 18.648438 C 72.921875 18.980469 74.082031 19.339844 75.230469 19.722656 C 76.382812 20.105469 77.3125 20.492188 78.023438 20.882812 C 79.003906 21.421875 79.695312 21.96875 80.089844 22.527344 C 80.488281 23.089844 80.6875 23.683594 80.6875 24.316406 C 80.6875 25.152344 80.28125 25.917969 79.472656 26.609375 C 78.664062 27.300781 77.539062 27.839844 76.105469 28.230469 C 74.671875 28.621094 73.097656 28.816406 71.394531 28.816406 C 70.230469 28.816406 69.179688 28.75 68.25 28.617188 C 67.320312 28.484375 66.265625 28.308594 65.085938 28.089844 C 63.90625 27.871094 63.117188 27.761719 62.71875 27.761719 C 62.152344 27.761719 61.652344 27.859375 61.226562 28.050781 C 60.800781 28.242188 60.523438 28.488281 60.394531 28.792969 L 59.03125 28.792969 L 59.03125 23.273438 "/>
<path style=" stroke:none;fill-rule:nonzero;fill:rgb(22.732544%,49.69635%,68.011475%);fill-opacity:1;" d="M 113.128906 23.835938 L 114.472656 24.363281 C 111.546875 27.332031 107 28.816406 100.832031 28.816406 C 98.246094 28.816406 95.902344 28.589844 93.808594 28.136719 C 91.710938 27.683594 89.933594 27.0625 88.46875 26.269531 C 87.003906 25.476562 85.898438 24.585938 85.152344 23.601562 C 84.40625 22.617188 84.035156 21.609375 84.035156 20.578125 C 84.035156 19.0625 84.792969 17.660156 86.304688 16.375 C 87.816406 15.089844 89.890625 14.070312 92.519531 13.316406 C 95.148438 12.5625 98.019531 12.183594 101.128906 12.183594 C 102.378906 12.183594 103.507812 12.242188 104.507812 12.355469 C 105.511719 12.46875 106.589844 12.617188 107.75 12.804688 C 108.90625 12.992188 109.632812 13.089844 109.933594 13.089844 C 110.34375 13.089844 110.683594 13.007812 110.945312 12.847656 C 111.207031 12.6875 111.339844 12.464844 111.339844 12.183594 L 112.726562 12.183594 L 113.449219 17.484375 L 112.023438 17.484375 C 111.59375 16.851562 111.007812 16.277344 110.261719 15.761719 C 109.515625 15.246094 108.710938 14.8125 107.84375 14.460938 C 106.976562 14.105469 106.003906 13.832031 104.925781 13.625 C 103.84375 13.425781 102.765625 13.324219 101.683594 13.324219 C 99.582031 13.324219 97.691406 13.625 96.015625 14.230469 C 94.335938 14.835938 93.035156 15.691406 92.113281 16.792969 C 91.191406 17.894531 90.726562 19.132812 90.726562 20.507812 C 90.726562 21.828125 91.214844 23.007812 92.1875 24.046875 C 93.160156 25.085938 94.535156 25.898438 96.3125 26.480469 C 98.089844 27.0625 100.105469 27.351562 102.367188 27.351562 C 106.84375 27.351562 110.429688 26.179688 113.128906 23.835938 "/>
<path style=" stroke:none;fill-rule:nonzero;fill:rgb(22.732544%,49.69635%,68.011475%);fill-opacity:1;" d="M 136.707031 22.851562 L 130.929688 16.558594 L 125.640625 22.851562 Z M 124.578125 24.117188 L 123.765625 25.089844 C 123.269531 25.683594 123.019531 26.101562 123.019531 26.34375 C 123.019531 27.164062 124.214844 27.585938 126.601562 27.609375 L 126.601562 28.371094 L 116.199219 28.371094 L 116.199219 27.609375 C 117.222656 27.59375 118.132812 27.390625 118.929688 27 C 119.722656 26.609375 120.492188 25.972656 121.230469 25.089844 L 132.058594 12.183594 L 133.292969 12.183594 L 146.191406 26.273438 C 146.515625 26.625 146.851562 26.894531 147.191406 27.078125 C 147.535156 27.261719 147.921875 27.390625 148.355469 27.464844 C 148.789062 27.539062 149.375 27.585938 150.113281 27.609375 L 150.113281 28.371094 L 136.960938 28.371094 L 136.960938 27.609375 C 138.140625 27.601562 138.945312 27.539062 139.378906 27.417969 C 139.8125 27.296875 140.03125 27.085938 140.03125 26.789062 C 140.03125 26.476562 139.765625 26.042969 139.242188 25.488281 L 137.898438 24.117188 L 124.578125 24.117188 "/>
<path style=" stroke:none;fill-rule:nonzero;fill:rgb(22.732544%,49.69635%,68.011475%);fill-opacity:1;" d="M 175.222656 16.253906 L 173.835938 16.253906 C 173.667969 15.324219 173.15625 14.664062 172.300781 14.277344 C 171.449219 13.890625 170.085938 13.699219 168.210938 13.699219 L 164.203125 13.699219 L 164.203125 25.148438 C 164.203125 25.8125 164.320312 26.320312 164.554688 26.667969 C 164.789062 27.015625 165.195312 27.257812 165.769531 27.398438 C 166.34375 27.539062 167.199219 27.609375 168.335938 27.609375 L 169.191406 27.609375 L 169.191406 28.371094 L 153.289062 28.371094 L 153.289062 27.609375 L 154.375 27.609375 C 155.738281 27.609375 156.734375 27.441406 157.359375 27.101562 C 157.984375 26.761719 158.296875 26.109375 158.296875 25.148438 L 158.296875 13.699219 L 154.972656 13.699219 C 152.984375 13.699219 151.503906 13.871094 150.539062 14.226562 C 149.574219 14.578125 148.949219 15.253906 148.664062 16.253906 L 147.277344 16.253906 L 147.46875 12.476562 L 175.03125 12.476562 L 175.222656 16.253906 "/>
<path style=" stroke:none;fill-rule:nonzero;fill:rgb(22.732544%,49.69635%,68.011475%);fill-opacity:1;" d="M 64.183594 38.28125 L 70.496094 38.28125 L 68.554688 35.890625 C 67.960938 35.167969 67.519531 34.570312 67.230469 34.101562 C 66.996094 34.65625 66.660156 35.207031 66.230469 35.75 Z M 58.816406 41.820312 L 65.964844 33.199219 L 68.617188 33.199219 L 76.234375 41.820312 L 73.429688 41.820312 L 71.257812 39.210938 L 63.472656 39.210938 L 61.429688 41.820312 L 58.816406 41.820312 "/>
<path style=" stroke:none;fill-rule:nonzero;fill:rgb(22.732544%,49.69635%,68.011475%);fill-opacity:1;" d="M 78.621094 41.820312 L 78.621094 33.199219 L 81.085938 33.199219 L 81.085938 41.820312 L 78.621094 41.820312 "/>
<path style=" stroke:none;fill-rule:nonzero;fill:rgb(22.732544%,49.69635%,68.011475%);fill-opacity:1;" d="M 87.929688 37.003906 L 93.222656 37.003906 C 94.351562 37.003906 95.230469 36.949219 95.867188 36.839844 C 96.5 36.734375 96.984375 36.5625 97.3125 36.324219 C 97.644531 36.085938 97.808594 35.828125 97.808594 35.550781 C 97.808594 35.144531 97.488281 34.808594 96.847656 34.542969 C 96.210938 34.28125 95.203125 34.152344 93.820312 34.152344 L 87.929688 34.152344 Z M 85.464844 41.820312 L 85.464844 33.199219 L 93.71875 33.199219 C 95.378906 33.199219 96.640625 33.273438 97.503906 33.429688 C 98.367188 33.585938 99.058594 33.859375 99.574219 34.25 C 100.089844 34.644531 100.347656 35.074219 100.347656 35.550781 C 100.347656 36.160156 99.921875 36.675781 99.066406 37.097656 C 98.210938 37.515625 96.890625 37.785156 95.105469 37.898438 C 95.753906 38.042969 96.25 38.1875 96.589844 38.328125 C 97.308594 38.632812 97.992188 39.015625 98.632812 39.472656 L 101.871094 41.820312 L 98.773438 41.820312 L 96.308594 40.027344 C 95.589844 39.507812 94.996094 39.113281 94.53125 38.839844 C 94.066406 38.5625 93.648438 38.371094 93.28125 38.261719 C 92.914062 38.152344 92.539062 38.074219 92.15625 38.03125 C 91.878906 38.003906 91.421875 37.992188 90.785156 37.992188 L 87.929688 37.992188 L 87.929688 41.820312 L 85.464844 41.820312 "/>
<path style=" stroke:none;fill-rule:nonzero;fill:rgb(22.732544%,49.69635%,68.011475%);fill-opacity:1;" d="M 104.105469 41.820312 L 104.105469 33.199219 L 106.570312 33.199219 L 106.570312 40.804688 L 115.738281 40.804688 L 115.738281 41.820312 L 104.105469 41.820312 "/>
<path style=" stroke:none;fill-rule:nonzero;fill:rgb(22.732544%,49.69635%,68.011475%);fill-opacity:1;" d="M 119.089844 41.820312 L 119.089844 33.199219 L 121.554688 33.199219 L 121.554688 41.820312 L 119.089844 41.820312 "/>
<path style=" stroke:none;fill-rule:nonzero;fill:rgb(22.732544%,49.69635%,68.011475%);fill-opacity:1;" d="M 125.871094 41.820312 L 125.871094 33.199219 L 128.398438 33.199219 L 138.175781 39.96875 L 138.175781 33.199219 L 140.535156 33.199219 L 140.535156 41.820312 L 138.007812 41.820312 L 128.230469 35.042969 L 128.230469 41.820312 L 125.871094 41.820312 "/>
<path style=" stroke:none;fill-rule:nonzero;fill:rgb(22.732544%,49.69635%,68.011475%);fill-opacity:1;" d="M 144.726562 41.820312 L 144.726562 33.199219 L 158.183594 33.199219 L 158.183594 34.214844 L 147.1875 34.214844 L 147.1875 36.855469 L 157.488281 36.855469 L 157.488281 37.867188 L 147.1875 37.867188 L 147.1875 40.804688 L 158.617188 40.804688 L 158.617188 41.820312 L 144.726562 41.820312 "/>
<path style=" stroke:none;fill-rule:nonzero;fill:rgb(22.732544%,49.69635%,68.011475%);fill-opacity:1;" d="M 161.183594 39.050781 L 163.503906 38.957031 C 163.617188 39.386719 163.871094 39.742188 164.273438 40.019531 C 164.675781 40.292969 165.300781 40.519531 166.148438 40.6875 C 166.992188 40.859375 167.945312 40.945312 169.003906 40.945312 C 169.941406 40.945312 170.773438 40.878906 171.492188 40.75 C 172.210938 40.621094 172.746094 40.441406 173.097656 40.21875 C 173.449219 39.992188 173.625 39.746094 173.625 39.480469 C 173.625 39.210938 173.457031 38.972656 173.117188 38.769531 C 172.777344 38.570312 172.21875 38.398438 171.441406 38.261719 C 170.941406 38.171875 169.835938 38.03125 168.128906 37.839844 C 166.417969 37.652344 165.21875 37.472656 164.535156 37.304688 C 163.644531 37.085938 162.984375 36.820312 162.546875 36.5 C 162.109375 36.179688 161.894531 35.824219 161.894531 35.425781 C 161.894531 34.992188 162.160156 34.585938 162.691406 34.207031 C 163.226562 33.828125 164.003906 33.542969 165.027344 33.34375 C 166.054688 33.148438 167.191406 33.050781 168.445312 33.050781 C 169.824219 33.050781 171.042969 33.152344 172.09375 33.359375 C 173.148438 33.566406 173.960938 33.867188 174.527344 34.269531 C 175.09375 34.667969 175.398438 35.121094 175.441406 35.625 L 173.078125 35.710938 C 172.953125 35.164062 172.523438 34.753906 171.789062 34.472656 C 171.058594 34.195312 169.976562 34.058594 168.546875 34.058594 C 167.054688 34.058594 165.972656 34.183594 165.289062 34.4375 C 164.609375 34.6875 164.265625 34.992188 164.265625 35.351562 C 164.265625 35.660156 164.507812 35.914062 164.992188 36.117188 C 165.464844 36.316406 166.703125 36.519531 168.707031 36.730469 C 170.707031 36.941406 172.082031 37.121094 172.824219 37.28125 C 173.910156 37.511719 174.710938 37.804688 175.226562 38.160156 C 175.742188 38.515625 176 38.921875 176 39.386719 C 176 39.84375 175.714844 40.277344 175.148438 40.683594 C 174.582031 41.089844 173.765625 41.402344 172.703125 41.628906 C 171.640625 41.855469 170.445312 41.96875 169.117188 41.96875 C 167.433594 41.96875 166.023438 41.855469 164.882812 41.625 C 163.746094 41.398438 162.851562 41.058594 162.203125 40.601562 C 161.554688 40.144531 161.214844 39.625 161.183594 39.050781 "/>
</g>
</svg>

<svg xmlns="http://www.w3.org/2000/svg" width="176pt" height="63.08" viewBox="0 0 176 47.31"><defs><clipPath id="a"><path d="M0 0h53v47.309H0Zm0 0"/></clipPath></defs><g clip-path="url(#a)"><path d="M51.047 44.063c-.5.874-1.79 1.359-3.633 1.359-3.254 0-7.766-1.469-12.066-3.926-3.438-1.969-6.11-4.184-7.887-6.234q.408-.556.746-1.106h5.914l-3.004-5.144c.133-.258.25-.54.371-.817 2.84.532 6.164 1.801 9.383 3.64 3.55 2.032 6.563 4.493 8.48 6.927 1.739 2.21 2.356 4.144 1.696 5.3m-24.703 1.671c-3.145 0-6.078-.922-8.547-2.507.172-.098.348-.184.52-.282 3.402-1.945 6.195-4.218 8.148-6.453 1.953 2.203 4.723 4.442 8.101 6.371.157.09.32.172.477.258a15.75 15.75 0 0 1-8.7 2.613m-20.88-.16c-1.839 0-3.128-.558-3.628-1.433-.664-1.16-.047-3.168 1.695-5.38 1.914-2.433 4.926-4.894 8.48-6.925 3.216-1.836 6.544-3.113 9.384-3.645.148.352.308.684.472.997l-2.758 4.968h5.594q.34.551.762 1.114c-1.781 2.074-4.461 4.316-7.934 6.3-4.297 2.461-8.808 4.004-12.062 4.004ZM10.47 29.86c0-6.23 3.61-11.632 8.84-14.23.003 0 .007-.012.011-.016-.008.29-.02.575-.02.867 0 3.91.571 7.442 1.524 10.235-2.957.601-6.344 1.914-9.597 3.773-.243.14-.48.285-.72.43a16 16 0 0 1-.038-1.059m11.32 2.782 4.664-8.293 4.832 8.28Zm4.652-31.063c2.63 0 5.563 6.121 5.563 14.902 0 3.985-.61 7.403-1.516 9.97-.312-.04-.61-.055-.906-.071l-3.152-5.406-3.004 5.406c-.336.016-.68.039-1.04.082-.906-2.563-1.507-5.996-1.507-9.98 0-8.782 2.93-14.903 5.562-14.903m7.133 14.149c5.13 2.636 8.645 7.98 8.645 14.132q.001.468-.028.93c-.18-.105-.355-.215-.539-.32-3.25-1.86-6.632-3.168-9.59-3.766.95-2.793 1.52-6.32 1.52-10.223 0-.253-.012-.503-.02-.757q.006.005.012.004M50.59 37.785c-1.656-2.101-4.067-4.207-6.906-6.066.066-.61.113-1.23.113-1.86 0-7.074-4.234-13.18-10.297-15.918-.004 0-.008-.004-.012-.004C32.973 5.95 30.066.005 26.441.005c-3.613 0-6.515 5.906-7.043 13.855-.003 0-.007-.007-.011-.004-6.168 2.692-10.492 8.852-10.492 16.004 0 .676.05 1.34.128 1.996-2.765 1.836-5.109 3.91-6.73 5.97-2.191 2.78-2.84 5.327-1.828 7.097.562.984 1.887 2.23 5 2.23h.004c2.976 0 6.879-1.172 10.754-3.097a17.35 17.35 0 0 0 10.12 3.254c3.84 0 7.384-1.258 10.266-3.364 3.891 1.926 7.813 3.051 10.805 3.051 3.117 0 4.441-1.168 5-2.152 1.012-1.77.367-4.278-1.824-7.059" style="stroke:none;fill-rule:nonzero;fill:#3a7fad;fill-opacity:1"/></g><path d="M59.031 23.273h1.364q.938 1.302 2.472 2.286a12.5 12.5 0 0 0 3.39 1.507q1.854.521 3.86.52 1.447 0 2.567-.305 1.118-.304 1.738-.832.616-.527.617-1.195 0-1.067-1.535-1.91-.679-.4-1.973-.817c-.86-.273-2.176-.683-3.953-1.222q-2.665-.81-3.953-1.254a17.6 17.6 0 0 1-2.293-.961q-2.215-1.22-2.215-2.836 0-.857.68-1.613.685-.756 1.879-1.301 1.19-.546 2.836-.852a19.4 19.4 0 0 1 3.535-.304q1.388 0 2.465.105 1.073.105 2.27.305 1.19.2 1.937.3.75.1 1.172.098 1.172 0 1.601-.808h1.426v5.183h-1.34q-.898-1.218-2.316-2.133a11.8 11.8 0 0 0-3.133-1.414 12.6 12.6 0 0 0-3.527-.496q-1.938-.001-3.102.52-1.16.522-1.16 1.39 0 .797 1.172 1.442.661.338 2.578.906 1.922.568 3.668 1.066 1.748.5 3.472 1.075 1.728.574 2.793 1.16c.98.539 1.672 1.086 2.067 1.644q.597.843.597 1.79-.001 1.254-1.214 2.292-1.215 1.036-3.368 1.621c-1.433.391-3.007.586-4.71.586a22.4 22.4 0 0 1-3.145-.199 78 78 0 0 1-3.164-.527q-1.77-.328-2.367-.328c-.567 0-1.067.097-1.492.289q-.64.285-.832.742H59.03zM113.129 23.836l1.344.527q-4.389 4.453-13.641 4.453c-2.586 0-4.93-.226-7.023-.68-2.098-.452-3.875-1.073-5.34-1.866q-2.197-1.19-3.317-2.668-1.118-1.477-1.117-3.024.001-2.274 2.27-4.203c1.511-1.285 3.586-2.305 6.215-3.059q3.944-1.132 8.609-1.132c1.25 0 2.379.058 3.379.171 1.004.114 2.082.262 3.242.45 1.156.187 1.883.285 2.184.285.41 0 .75-.082 1.011-.242q.394-.241.395-.664h1.387l.722 5.3h-1.426q-.644-.949-1.761-1.722-1.118-.774-2.418-1.301c-.867-.356-1.84-.629-2.918-.836-1.082-.2-2.16-.3-3.242-.3q-3.154-.001-5.668.905-2.52.91-3.903 2.563-1.385 1.653-1.386 3.715.001 1.98 1.46 3.539t4.126 2.433c1.777.582 3.792.872 6.054.872q6.715 0 10.762-3.516M136.707 22.852l-5.777-6.293-5.29 6.293Zm-12.129 1.265-.812.973q-.745.891-.746 1.254 0 1.23 3.582 1.265v.762h-10.403v-.762q1.536-.023 2.73-.609 1.193-.585 2.301-1.91l10.829-12.906h1.234l12.898 14.09q.489.527 1 .804.514.276 1.164.387.651.11 1.758.144v.762h-13.152v-.762q1.769-.01 2.418-.191.651-.183.652-.629-.001-.469-.789-1.3l-1.344-1.372zM175.223 16.254h-1.387q-.252-1.396-1.535-1.977-1.278-.578-4.09-.578h-4.008v11.45q0 .996.352 1.519.352.521 1.215.73.862.211 2.566.211h.855v.762H153.29v-.762h1.086q2.046 0 2.984-.507.938-.511.938-1.954V13.7h-3.324c-1.989 0-3.47.172-4.434.528q-1.448.527-1.875 2.027h-1.387l.192-3.777h27.562zM64.184 38.281h6.312l-1.941-2.39q-.89-1.085-1.325-1.79a7.2 7.2 0 0 1-1 1.649Zm-5.368 3.54 7.149-8.622h2.652l7.617 8.621H73.43l-2.172-2.61h-7.785l-2.043 2.61zM78.621 41.82V33.2h2.465v8.62zM87.93 37.004h5.293c1.129 0 2.007-.055 2.644-.164q.951-.159 1.445-.516.498-.357.497-.773 0-.609-.961-1.008-.954-.392-3.028-.39h-5.89Zm-2.465 4.816V33.2h8.254c1.66 0 2.922.073 3.785.23q1.296.234 2.07.82c.516.395.774.824.774 1.3q.001.915-1.282 1.548-1.282.629-3.96.8.973.219 1.484.43 1.08.459 2.043 1.145l3.238 2.347h-3.098l-2.464-1.793a24 24 0 0 0-1.778-1.187q-.698-.416-1.25-.578a6.5 6.5 0 0 0-1.125-.23 16 16 0 0 0-1.37-.04H87.93v3.828zM104.105 41.82V33.2h2.465v7.605h9.168v1.015zM119.09 41.82V33.2h2.465v8.62zM125.871 41.82V33.2h2.527l9.778 6.769v-6.77h2.36v8.621h-2.528l-9.778-6.777v6.777zM144.727 41.82V33.2h13.457v1.015h-10.996v2.64h10.3v1.012h-10.3v2.938h11.43v1.015zM161.184 39.05l2.32-.093c.113.43.367.785.77 1.063.402.273 1.027.5 1.874.667q1.267.258 2.856.258c.937 0 1.77-.066 2.488-.195.719-.129 1.254-.309 1.606-.531q.527-.34.527-.739.001-.405-.508-.71-.51-.302-1.676-.508-.75-.135-3.312-.422-2.567-.282-3.594-.535c-.89-.22-1.55-.485-1.988-.805s-.652-.676-.652-1.074q0-.65.796-1.219.803-.567 2.336-.863c1.028-.196 2.164-.293 3.418-.293q2.071-.001 3.649.308 1.583.309 2.433.91.85.6.914 1.356l-2.363.086q-.188-.819-1.289-1.238-1.096-.416-3.242-.414c-1.492 0-2.574.125-3.258.379q-1.022.374-1.023.914 0 .461.726.765.71.299 3.715.613c2 .211 3.375.391 4.117.551q1.629.346 2.403.88c.515.355.773.76.773 1.226q0 .686-.852 1.297c-.566.406-1.382.718-2.445.945q-1.594.34-3.586.34-2.524 0-4.234-.344-1.706-.339-2.68-1.023c-.648-.457-.988-.977-1.02-1.551" style="stroke:none;fill-rule:nonzero;fill:#3a7fad;fill-opacity:1"/></svg>
